X:1
T:Mazurka
T:Juan Alais (1844 - 1914)
T:No.1, Op.1 "Seis Piezas Faciles"
%%score { ( 1 2 3 ) ( 4 5 6 ) }
L:1/8
Q:1/4=108
M:3/4
K:C
V:1 treble-8 nm="Guitare classique"
V:2 treble-8 
V:3 treble-8 
V:4 tab stafflines=6 strings=E2,A2,D3,G3,B3,E4 nostems nm="Guitare classique [Tablature]"
V:5 tab stafflines=6 strings=E2,A2,D3,G3,B3,E4 nostems 
V:6 tab stafflines=6 strings=E2,A2,D3,G3,B3,E4 nostems 
V:1
"_" [Ace]>c A2 [Adf]2 | [Ace]>c A2 a2 | !3!^g>e !1!d2 !4!b2 | !1!a>e !1!c2 A2 | %4
"_" [cea]>^g a2 [G^ce]2 | g2 f2 f2 | [^GBe]f ed cB | A2"^₵5" [cea]2 z2!fine! :: %8
"_" g^g !3!a2 !1!f2 | f2 e2 e2 | e2 !4!d2 d2 | fe [ce]2 [ce]2 | g^g a2 f2 | f2 e2 e2 | %14
"_" cB c2 d2 | [^GBe]2"^Hr.12" e'2 z2!D.C.! :| %16
V:2
 A,2 z2 A,2 | A,2 z2 A,2 | E,2 z2 E,2 | A,2 z2 z2 | A,2 z2 A,2 | D6 | E,4 E,2 | A,2 A,2 z2 :: D6 | %9
 !3!C6 | !2!B,6 | C6 | D6 | C6 | !1!F,2 x4 | E,2 x2 x2 :| %16
V:3
 x6 | x6 | x6 | x6 | x6 | x2 [Ad]2 [Ad]2 | x6 | x6 :: x2 [GB]2 [GB]2 | x2 [Gc]2 [Gc]2 | %10
 x2 !3![FG]2 [FG]2 | x6 | x2 [GB]2 [GB]2 | x2 [Gc]2 [Gc]2 | x2 !3![FA]2 [FA]2 | x6 :| %16
V:4
 [!3!A,!2!C!1!E]3/2 !2!C/ !3!A,2 [!3!A,!2!D!1!F]2 | [!3!A,!2!C!1!E]3/2 !2!C/ !3!A,2 !1!A2 | %2
 !1!^G3/2 !1!E/ !2!D2 !1!B2 | !1!A3/2 !1!E/ !2!C2 !3!A,2 | %4
 [!3!C!2!E!1!A]3/2 !1!^G/ !1!A2 [!3!G,!2!^C!1!E]2 | !1!G2 !1!F2 !1!F2 | %6
 [!3!^G,!2!B,!1!E] !1!F !1!E !2!D !2!C !2!B, | !3!A,2 [!3!C!2!E!1!A]2 x2 :: %8
 !1!G !1!^G !1!A2 !1!F2 | !1!F2 !1!E2 !1!E2 | !1!E2 !2!D2 !2!D2 | %11
 !1!F !1!E [!2!C!1!E]2 [!2!C!1!E]2 | !1!G !1!^G !1!A2 !1!F2 | !1!F2 !1!E2 !1!E2 | %14
 !2!C !2!B, !2!C2 !2!D2 | [!3!^G,!2!B,!1!E]2"^Hr." !1!e2 x2 :| %16
V:5
 !5!A,,2 x2 !5!A,,2 | !5!A,,2 x2 !5!A,,2 | !6!E,,2 x2 !6!E,,2 | !5!A,,2 x2 x2 | %4
 !5!A,,2 x2 !5!A,,2 | !4!D,6 | !6!E,,4 !6!E,,2 | !5!A,,2 !5!A,,2 x2 :: !4!D,6 | !5!C,6 | !5!B,,6 | %11
 !5!C,6 | !4!D,6 | !5!C,6 | !6!F,,6 | !6!E,,2 x2 x2 :| %16
V:6
 x6 | x6 | x6 | x6 | x6 | x2 [!3!A,!2!D]2 [!3!A,!2!D]2 | x6 | x6 :: %8
 x2 [!3!G,!2!B,]2 [!3!G,!2!B,]2 | x2 [!3!G,!2!C]2 [!3!G,!2!C]2 | x2 [!4!F,!3!G,]2 [!4!F,!3!G,]2 | %11
 x6 | x2 [!3!G,!2!B,]2 [!3!G,!2!B,]2 | x2 [!3!G,!2!C]2 [!3!G,!2!C]2 | %14
 x2 [!4!F,!3!A,]2 [!4!F,!3!A,]2 | x6 :| %16

